svgs/light/object-subtract.svg

<svg xmlns="http://www.w3.org/2000/svg" viewBox="0 0 512 512"><!--! Font Awesome Pro 6.6.0 by @fontawesome - https://fontawesome.com License - https://fontawesome.com/license (Commercial License) Copyright 2024 Fonticons, Inc. --><path d="M64 32l32 0L96 0 64 0C28.7 0 0 28.7 0 64L0 96l32 0 0-32c0-17.7 14.3-32 32-32zm160 0l0-32L128 0l0 32 96 0zM32 128L0 128l0 96 32 0 0-96zm0 128L0 256l0 32c0 35.3 28.7 64 64 64l32 0 0-32-32 0c-17.7 0-32-14.3-32-32l0-32zm96 96l32 0 32 0 32 0 0-32-32 0-32 0-32 0 0 32zm32 32l0 64c0 35.3 28.7 64 64 64l224 0c35.3 0 64-28.7 64-64l0-224c0-35.3-28.7-64-64-64l-64 0 0 32 64 0c17.7 0 32 14.3 32 32l0 224c0 17.7-14.3 32-32 32l-224 0c-17.7 0-32-14.3-32-32l0-64-32 0zM352 192l0-32 0-32-32 0 0 32 0 32 0 32 32 0 0-32zm0-128c0-35.3-28.7-64-64-64L256 0l0 32 32 0c17.7 0 32 14.3 32 32l0 32 32 0 0-32zM256 320l0 32 32 0c35.3 0 64-28.7 64-64l0-32-32 0 0 32c0 17.7-14.3 32-32 32l-32 0z"/></svg>

<svg xmlns="http://www.w3.org/2000/svg" viewBox="0 0 512 512"><!--! Font Awesome Pro 6.4.0 by @fontawesome - https://fontawesome.com License - https://fontawesome.com/license (Commercial License) Copyright 2023 Fonticons, Inc. --><path d="M64 32l32 0V0H64C28.7 0 0 28.7 0 64V96H32l0-32c0-17.7 14.3-32 32-32zm160 0V0H128V32l96 0zM32 128H0v96H32l0-96zm0 128H0v32c0 35.3 28.7 64 64 64H96V320H64c-17.7 0-32-14.3-32-32l0-32zm96 96h32l32 0h32V320H192 160 128v32zm32 32l0 64c0 35.3 28.7 64 64 64l224 0c35.3 0 64-28.7 64-64V224c0-35.3-28.7-64-64-64l-64 0v32l64 0c17.7 0 32 14.3 32 32l0 224c0 17.7-14.3 32-32 32l-224 0c-17.7 0-32-14.3-32-32l0-64H160zM352 192l0-32V128H320v32 32 32h32V192zm0-128c0-35.3-28.7-64-64-64H256V32l32 0c17.7 0 32 14.3 32 32V96h32V64zM256 320v32h32c35.3 0 64-28.7 64-64V256H320v32c0 17.7-14.3 32-32 32H256z"/></svg>
